key-chain-variant.svg

<svg fill="currentColor" viewBox="0 0 24 24"><path d="M12.66 13.67c-.34.33-.73.62-1.16.83V21l-2 2-2-2 2-1.71L8 18l1.5-1.29-2-1.71v-.5a4.42 4.42 0 0 1-2.5-4C5 8 7 6 9.5 6h.11c-.02.07-.07.12-.11.18-.27.61-.42 1.25-.47 1.9A1.498 1.498 0 0 0 9.5 11h.1c.64 1.25 1.74 2.2 3.06 2.67M16 6c0-.63-.1-1.25-.28-1.82 1.34.38 2.49 1.37 3.01 2.78.6 1.66.16 3.43-.98 4.63L20 17.68l-1.22 2.57-2.56-1.2 1.28-2.29-1.84-.7.97-1.72-2.47-.93-.16-.46a4.48 4.48 0 0 1-3.73-2.91 4.51 4.51 0 0 1 2.69-5.77c.18-.06.37-.1.54-.14A3.95 3.95 0 0 0 10 2C7.79 2 6 3.79 6 6c0 .09 0 .17.03.26-.33.27-.63.56-.88.89C5.06 6.78 5 6.4 5 6c0-2.76 2.24-5 5-5s5 2.24 5 5c0 1.16-.4 2.21-1.06 3.06C16.08 8.88 16 6 16 6m-3.19 2.1c.06.17.15.31.25.44.56-.66.91-1.5.94-2.43-.11.02-.2.04-.3.07-.78.29-1.2 1.15-.89 1.92"/></svg>

<svg  viewBox="0 0 24 24" fill="currentColor"><path  d="M12.66 13.67C12.32 14 11.93 14.29 11.5 14.5V21L9.5 23L7.5 21L9.5 19.29L8 18L9.5 16.71L7.5 15V14.5C6 13.77 5 12.26 5 10.5C5 8 7 6 9.5 6C9.54 6 9.58 6 9.61 6C9.59 6.07 9.54 6.12 9.5 6.18C9.23 6.79 9.08 7.43 9.03 8.08C8.43 8.28 8 8.84 8 9.5C8 10.33 8.67 11 9.5 11C9.53 11 9.57 11 9.6 11C10.24 12.25 11.34 13.2 12.66 13.67M16 6C16 5.37 15.9 4.75 15.72 4.18C17.06 4.56 18.21 5.55 18.73 6.96C19.33 8.62 18.89 10.39 17.75 11.59L20 17.68L18.78 20.25L16.22 19.05L17.5 16.76L15.66 16.06L16.63 14.34L14.16 13.41L14 12.95C12.36 12.77 10.88 11.7 10.27 10.04C9.42 7.71 10.63 5.12 12.96 4.27C13.14 4.21 13.33 4.17 13.5 4.13C12.84 2.87 11.53 2 10 2C7.79 2 6 3.79 6 6C6 6.09 6 6.17 6.03 6.26C5.7 6.53 5.4 6.82 5.15 7.15C5.06 6.78 5 6.4 5 6C5 3.24 7.24 1 10 1S15 3.24 15 6C15 7.16 14.6 8.21 13.94 9.06C16.08 8.88 16 6 16 6M12.81 8.1C12.87 8.27 12.96 8.41 13.06 8.54C13.62 7.88 13.97 7.04 14 6.11C13.89 6.13 13.8 6.15 13.7 6.18C12.92 6.47 12.5 7.33 12.81 8.1Z"/></svg>
